src/images/Pill_Bottles.svg

<svg width="369" height="391" viewBox="0 0 369 391" fill="none" xmlns="http://www.w3.org/2000/svg">
<g clip-path="url(#clip0)">
<path d="M201.92 101.976V327.944C201.92 335.915 198.755 343.56 193.122 349.197C187.488 354.833 179.848 358 171.881 358H31.089C23.1221 358 15.4815 354.833 9.84809 349.197C4.21464 343.56 1.0498 335.915 1.0498 327.944V101.976C1.05586 94.0084 4.22336 86.3694 9.85615 80.7377C15.4889 75.1061 23.1261 71.9426 31.089 71.9426H33.3716C37.3727 71.9441 41.3349 71.1563 45.0314 69.6243C48.728 68.0923 52.0864 65.8461 54.9145 63.0143C57.7427 60.1824 59.9851 56.8205 61.5135 53.1207C63.0418 49.4209 63.8262 45.456 63.8217 41.4527V35.9713H141.431V41.4527C141.428 45.4556 142.213 49.4199 143.742 53.1189C145.271 56.818 147.513 60.1794 150.341 63.0109C153.169 65.8425 156.527 68.0887 160.223 69.6213C163.919 71.1538 167.88 71.9426 171.881 71.9426C179.844 71.9426 187.481 75.1061 193.114 80.7377C198.746 86.3694 201.914 94.0084 201.92 101.976Z" fill="#F58777"/>
<g style="mix-blend-mode:multiply" opacity="0.77">
<path d="M31.0891 73.6327C35.0883 73.6342 39.0486 72.8471 42.7436 71.3165C46.4387 69.786 49.7961 67.5418 52.6239 64.7124C55.4518 61.883 57.6946 58.5237 59.2244 54.8266C60.7541 51.1295 61.5407 47.167 61.5392 43.1655V37.6842H139.148V43.1655C139.148 59.9978 31.0891 73.6327 31.0891 73.6327Z" fill="#F58777"/>
</g>
<path d="M149.534 0H55.3191C52.5457 0 50.2974 2.24957 50.2974 5.02456V34.6923C50.2974 37.4673 52.5457 39.7169 55.3191 39.7169H149.534C152.307 39.7169 154.556 37.4673 154.556 34.6923V5.02456C154.556 2.24957 152.307 0 149.534 0Z" fill="#F8F6E8"/>
<g style="mix-blend-mode:multiply">
<path d="M67.3372 41.0301V15.0394C67.3403 14.692 67.2069 14.3573 66.9657 14.1073C66.7244 13.8574 66.3947 13.7123 66.0475 13.7034C65.6964 13.7034 65.3597 13.8429 65.1114 14.0914C64.8631 14.3398 64.7236 14.6767 64.7236 15.028V41.0301H67.3372Z" fill="#C0D5D0"/>
</g>
<g style="mix-blend-mode:multiply">
<path d="M91.6242 41.0301V15.0394C91.6257 14.8645 91.5926 14.691 91.5267 14.529C91.4609 14.367 91.3636 14.2196 91.2405 14.0954C91.1174 13.9712 90.971 13.8726 90.8096 13.8053C90.6482 13.738 90.4751 13.7034 90.3003 13.7034C89.9552 13.7153 89.6283 13.8616 89.3895 14.1112C89.1507 14.3608 89.0188 14.6939 89.022 15.0394V41.0301H91.6242Z" fill="#C0D5D0"/>
</g>
<g style="mix-blend-mode:multiply">
<path d="M115.877 41.0301V15.0394C115.878 14.8645 115.845 14.691 115.779 14.529C115.714 14.367 115.616 14.2196 115.493 14.0954C115.37 13.9712 115.224 13.8726 115.062 13.8053C114.901 13.738 114.728 13.7034 114.553 13.7034C114.202 13.7034 113.865 13.8429 113.617 14.0914C113.368 14.3398 113.229 14.6767 113.229 15.028V41.0301H115.877Z" fill="#C0D5D0"/>
</g>
<g style="mix-blend-mode:multiply">
<path d="M140.13 41.0301V15.0394C140.131 14.8645 140.098 14.691 140.032 14.529C139.966 14.367 139.869 14.2196 139.746 14.0954C139.623 13.9712 139.477 13.8726 139.315 13.8053C139.154 13.738 138.981 13.7034 138.806 13.7034C138.455 13.7034 138.118 13.8429 137.87 14.0914C137.621 14.3398 137.482 14.6767 137.482 15.028V41.0301H140.13Z" fill="#C0D5D0"/>
</g>
<g style="mix-blend-mode:multiply">
<path d="M51.0964 26.3676H153.757C153.969 26.3676 154.172 26.4518 154.322 26.6017C154.472 26.7516 154.556 26.9549 154.556 27.1669V36.5423C154.556 37.8749 154.027 39.1529 153.085 40.0952C152.143 41.0375 150.866 41.5669 149.534 41.5669H55.3192C53.9873 41.5669 52.71 41.0375 51.7683 40.0952C50.8265 39.1529 50.2974 37.8749 50.2974 36.5423V27.1783C50.2959 27.0724 50.3155 26.9672 50.355 26.8689C50.3944 26.7706 50.453 26.6811 50.5274 26.6057C50.6017 26.5303 50.6903 26.4704 50.788 26.4295C50.8856 26.3886 50.9905 26.3675 51.0964 26.3676Z" fill="#F8F6E8"/>
</g>
<path d="M202 139.968H0V266.713H202V139.968Z" fill="#F7C1B6"/>
</g>
<g clip-path="url(#clip1)">
<path d="M274.632 113.771H352.368C353.224 113.771 354.072 113.94 354.863 114.267C355.654 114.594 356.373 115.074 356.978 115.679C357.584 116.284 358.064 117.002 358.392 117.793C358.72 118.583 358.888 119.43 358.888 120.286V320.341C358.888 321.872 358.587 323.388 358 324.803C357.414 326.217 356.554 327.503 355.47 328.585C354.387 329.668 353.1 330.527 351.685 331.113C350.269 331.698 348.751 332 347.219 332H279.781C276.688 331.997 273.722 330.768 271.536 328.582C269.35 326.395 268.122 323.432 268.122 320.341V120.286C268.122 118.56 268.807 116.904 270.028 115.683C271.249 114.461 272.905 113.774 274.632 113.771Z" fill="#F3C74A"/>
<path d="M355.308 279.561H302.687C293.256 279.561 285.611 272.438 285.611 263.645V176.766C285.611 167.973 293.256 160.85 302.687 160.85H355.308C356.423 160.877 357.482 161.342 358.255 162.145C359.028 162.948 359.452 164.024 359.435 165.138V275.273C359.452 276.387 359.028 277.462 358.255 278.265C357.482 279.068 356.423 279.534 355.308 279.561Z" fill="#F8EEC8"/>
<g style="mix-blend-mode:multiply" opacity="0.67">
<path d="M267.926 151.582V118.482C267.926 114.884 270.093 111.967 272.765 111.967H353.853C356.526 111.967 358.692 114.884 358.692 118.482V130.264L267.926 151.582Z" fill="#F3C74A"/>
</g>
<path d="M364.46 88H262.54C260.033 88 258 90.0307 258 92.5357V119.317C258 121.822 260.033 123.853 262.54 123.853H364.46C366.967 123.853 369 121.822 369 119.317V92.5357C369 90.0307 366.967 88 364.46 88Z" fill="#F8F6E8"/>
<g style="mix-blend-mode:multiply">
<path d="M269.401 125.038V101.576C269.403 101.418 269.373 101.262 269.313 101.115C269.254 100.969 269.166 100.836 269.054 100.724C268.943 100.612 268.811 100.523 268.665 100.462C268.519 100.401 268.362 100.37 268.204 100.37C267.887 100.37 267.583 100.496 267.358 100.72C267.134 100.945 267.008 101.249 267.008 101.566V125.038H269.401Z" fill="#C0D5D0"/>
</g>
<g style="mix-blend-mode:multiply">
<path d="M291.327 125.038V101.576C291.328 101.418 291.298 101.262 291.239 101.115C291.179 100.969 291.091 100.836 290.98 100.724C290.869 100.612 290.736 100.523 290.59 100.462C290.444 100.401 290.288 100.37 290.13 100.37C289.814 100.376 289.514 100.505 289.293 100.731C289.073 100.957 288.951 101.261 288.954 101.576V125.038H291.327Z" fill="#C0D5D0"/>
</g>
<g style="mix-blend-mode:multiply">
<path d="M313.252 125.038V101.576C313.254 101.418 313.224 101.262 313.164 101.115C313.105 100.969 313.017 100.836 312.906 100.724C312.794 100.612 312.662 100.523 312.516 100.462C312.37 100.401 312.214 100.37 312.056 100.37C311.738 100.37 311.434 100.496 311.209 100.72C310.985 100.945 310.859 101.249 310.859 101.566V125.038H313.252Z" fill="#C0D5D0"/>
</g>
<g style="mix-blend-mode:multiply">
<path d="M357.103 125.038V101.576C357.105 101.418 357.075 101.262 357.015 101.115C356.956 100.969 356.868 100.836 356.757 100.724C356.645 100.612 356.513 100.523 356.367 100.462C356.221 100.401 356.065 100.37 355.907 100.37C355.589 100.37 355.285 100.496 355.06 100.72C354.836 100.945 354.71 101.249 354.71 101.566V125.038H357.103Z" fill="#C0D5D0"/>
</g>
<g style="mix-blend-mode:multiply">
<path d="M335.178 125.038V101.576C335.179 101.418 335.149 101.262 335.09 101.115C335.03 100.969 334.942 100.836 334.831 100.724C334.72 100.612 334.587 100.523 334.441 100.462C334.296 100.401 334.139 100.37 333.981 100.37C333.664 100.37 333.359 100.496 333.135 100.72C332.91 100.945 332.784 101.249 332.784 101.566V125.038H335.178Z" fill="#C0D5D0"/>
</g>
<g style="mix-blend-mode:multiply">
<path d="M258.722 111.802H368.278C368.469 111.802 368.653 111.878 368.789 112.013C368.924 112.149 369 112.332 369 112.524V120.987C369 122.19 368.522 123.344 367.67 124.194C366.819 125.045 365.664 125.523 364.46 125.523H262.54C261.336 125.523 260.181 125.045 259.33 124.194C258.478 123.344 258 122.19 258 120.987V112.534C257.999 112.438 258.016 112.343 258.052 112.255C258.088 112.166 258.141 112.085 258.208 112.017C258.275 111.949 258.355 111.895 258.444 111.858C258.532 111.821 258.627 111.802 258.722 111.802Z" fill="#F8F6E8"/>
</g>
</g>
<g clip-path="url(#clip2)">
<path d="M168.225 192.446H288.764C290.672 192.446 292.503 193.204 293.852 194.552C295.201 195.901 295.96 197.73 295.96 199.637V378.131C295.96 381.544 294.603 384.817 292.188 387.231C289.773 389.644 286.498 391 283.082 391H173.917C170.502 391 167.227 389.644 164.812 387.231C162.397 384.817 161.04 381.544 161.04 378.131V199.637C161.04 197.732 161.797 195.905 163.144 194.556C164.491 193.208 166.318 192.449 168.225 192.446Z" fill="#F3C74A"/>
<path d="M164.217 348.9H218.401C223.058 348.888 227.521 347.03 230.81 343.735C234.099 340.439 235.946 335.975 235.946 331.32V235.434C235.946 230.779 234.099 226.315 230.81 223.019C227.521 219.724 223.058 217.866 218.401 217.854H164.217C163.023 217.925 161.904 218.462 161.103 219.35C160.302 220.238 159.883 221.405 159.936 222.599V344.155C159.883 345.349 160.302 346.516 161.103 347.404C161.904 348.292 163.023 348.829 164.217 348.9Z" fill="#F8EEC8"/>
<g style="mix-blend-mode:multiply" opacity="0.67">
<path d="M160.801 234.182V197.646C160.801 195.741 161.558 193.913 162.905 192.565C164.252 191.217 166.079 190.458 167.986 190.455H288.479C289.424 190.455 290.36 190.641 291.233 191.002C292.106 191.364 292.899 191.893 293.567 192.561C294.236 193.229 294.766 194.022 295.127 194.894C295.489 195.767 295.675 196.702 295.675 197.646V210.652L160.801 234.182Z" fill="#F3C74A"/>
</g>
<path d="M305.99 164H151.01C148.243 164 146 166.241 146 169.007V198.568C146 201.333 148.243 203.574 151.01 203.574H305.99C308.757 203.574 311 201.333 311 198.568V169.007C311 166.241 308.757 164 305.99 164Z" fill="#F8F6E8"/>
<g style="mix-blend-mode:multiply">
<path d="M158.581 204.883V178.985C158.583 178.811 158.55 178.638 158.484 178.477C158.418 178.315 158.321 178.169 158.198 178.045C158.076 177.921 157.929 177.823 157.768 177.756C157.608 177.689 157.435 177.654 157.26 177.654C156.91 177.654 156.574 177.793 156.327 178.041C156.079 178.288 155.94 178.624 155.94 178.974V204.883H158.581Z" fill="#C0D5D0"/>
</g>
<g style="mix-blend-mode:multiply">
<path d="M182.775 204.883V178.985C182.777 178.811 182.744 178.638 182.678 178.477C182.613 178.315 182.515 178.169 182.393 178.045C182.27 177.921 182.124 177.823 181.963 177.756C181.802 177.689 181.629 177.654 181.455 177.654C181.106 177.66 180.775 177.803 180.532 178.053C180.288 178.302 180.154 178.637 180.157 178.985V204.883H182.775Z" fill="#C0D5D0"/>
</g>
<g style="mix-blend-mode:multiply">
<path d="M206.97 204.883V178.985C206.971 178.811 206.938 178.638 206.873 178.477C206.807 178.315 206.71 178.169 206.587 178.045C206.464 177.921 206.318 177.823 206.157 177.756C205.996 177.689 205.824 177.654 205.649 177.654C205.299 177.654 204.963 177.793 204.715 178.041C204.468 178.288 204.328 178.624 204.328 178.974V204.883H206.97Z" fill="#C0D5D0"/>
</g>
<g style="mix-blend-mode:multiply">
<path d="M231.164 204.883V178.985C231.166 178.811 231.133 178.638 231.067 178.477C231.001 178.315 230.904 178.169 230.781 178.045C230.659 177.921 230.512 177.823 230.351 177.756C230.191 177.689 230.018 177.654 229.843 177.654C229.493 177.654 229.157 177.793 228.91 178.041C228.662 178.288 228.523 178.624 228.523 178.974V204.883H231.164Z" fill="#C0D5D0"/>
</g>
<g style="mix-blend-mode:multiply">
<path d="M255.358 204.883V178.985C255.36 178.811 255.327 178.638 255.261 178.477C255.196 178.315 255.098 178.169 254.976 178.045C254.853 177.921 254.707 177.823 254.546 177.756C254.385 177.689 254.212 177.654 254.038 177.654C253.687 177.654 253.352 177.793 253.104 178.041C252.856 178.288 252.717 178.624 252.717 178.974V204.883H255.358Z" fill="#C0D5D0"/>
</g>
<g style="mix-blend-mode:multiply">
<path d="M279.553 204.883V178.985C279.555 178.811 279.522 178.638 279.456 178.477C279.39 178.315 279.293 178.169 279.17 178.045C279.047 177.921 278.901 177.823 278.74 177.756C278.579 177.689 278.407 177.654 278.232 177.654C277.884 177.66 277.552 177.803 277.309 178.053C277.066 178.302 276.931 178.637 276.934 178.985V204.883H279.553Z" fill="#C0D5D0"/>
</g>
<g style="mix-blend-mode:multiply">
<path d="M303.747 204.883V178.985C303.749 178.811 303.716 178.638 303.65 178.477C303.584 178.315 303.487 178.169 303.365 178.045C303.242 177.921 303.096 177.823 302.935 177.756C302.774 177.689 302.601 177.654 302.427 177.654C302.076 177.654 301.74 177.793 301.493 178.041C301.245 178.288 301.106 178.624 301.106 178.974V204.883H303.747Z" fill="#C0D5D0"/>
</g>
<g style="mix-blend-mode:multiply">
<path d="M146.797 190.273H310.192C310.403 190.273 310.606 190.357 310.755 190.506C310.905 190.655 310.989 190.858 310.989 191.069V200.411C310.989 201.739 310.461 203.012 309.521 203.951C308.582 204.89 307.308 205.418 305.979 205.418H151.01C149.681 205.418 148.407 204.89 147.467 203.951C146.528 203.012 146 201.739 146 200.411V191.081C145.999 190.975 146.018 190.87 146.057 190.772C146.097 190.674 146.155 190.585 146.229 190.51C146.304 190.435 146.392 190.375 146.489 190.335C146.587 190.294 146.691 190.273 146.797 190.273Z" fill="#F8F6E8"/>
</g>
</g>
<defs>
<clipPath id="clip0">
<rect width="202" height="358" fill="white"/>
</clipPath>
<clipPath id="clip1">
<rect width="111" height="244" fill="white" transform="translate(258 88)"/>
</clipPath>
<clipPath id="clip2">
<rect width="165" height="227" fill="white" transform="translate(146 164)"/>
</clipPath>
</defs>
</svg>

<svg width="369" height="391" viewBox="0 0 369 391" fill="none" xmlns="http://www.w3.org/2000/svg"><g clip-path="url(#clip0)"><path d="M201.92 101.976v225.968a30.068 30.068 0 0 1-8.798 21.253A30.034 30.034 0 0 1 171.881 358H31.089a30.033 30.033 0 0 1-21.24-8.803 30.066 30.066 0 0 1-8.8-21.253V101.976a30.065 30.065 0 0 1 8.807-21.238 30.03 30.03 0 0 1 21.233-8.795h2.283a30.424 30.424 0 0 0 21.542-8.929 30.457 30.457 0 0 0 8.908-21.561V35.97h77.609v5.482a30.48 30.48 0 0 0 8.91 21.558 30.451 30.451 0 0 0 21.54 8.932c7.963 0 15.6 3.163 21.233 8.795a30.068 30.068 0 0 1 8.806 21.238z" fill="#F58777"/><path d="M31.09 73.633a30.423 30.423 0 0 0 21.534-8.92 30.457 30.457 0 0 0 8.915-21.547v-5.482h77.609v5.482c0 16.832-108.059 30.467-108.059 30.467z" fill="#F58777" opacity=".77"/><path d="M149.534 0H55.319a5.023 5.023 0 0 0-5.022 5.025v29.667a5.023 5.023 0 0 0 5.022 5.025h94.215a5.024 5.024 0 0 0 5.022-5.025V5.025A5.024 5.024 0 0 0 149.534 0z" fill="#F8F6E8"/><path d="M67.337 41.03V15.04a1.325 1.325 0 0 0-1.29-1.337 1.323 1.323 0 0 0-1.323 1.325V41.03h2.613zM91.624 41.03V15.04a1.324 1.324 0 0 0-1.324-1.337 1.324 1.324 0 0 0-1.278 1.336V41.03h2.602zM115.877 41.03V15.04a1.332 1.332 0 0 0-.815-1.235 1.32 1.32 0 0 0-1.445.286 1.322 1.322 0 0 0-.388.937V41.03h2.648zM140.13 41.03V15.04a1.332 1.332 0 0 0-.815-1.235 1.32 1.32 0 0 0-1.445.286 1.322 1.322 0 0 0-.388.937V41.03h2.648z" fill="#C0D5D0"/><path d="M51.096 26.368h102.661a.799.799 0 0 1 .799.799v9.375a5.025 5.025 0 0 1-5.022 5.025H55.319a5.02 5.02 0 0 1-5.022-5.025v-9.364a.8.8 0 0 1 .8-.81z" fill="#F8F6E8"/><path d="M202 139.968H0v126.745h202V139.968z" fill="#F7C1B6"/></g><g clip-path="url(#clip1)"><path d="M274.632 113.771h77.736a6.532 6.532 0 0 1 4.61 1.908 6.509 6.509 0 0 1 1.91 4.607v200.055a11.643 11.643 0 0 1-3.418 8.244 11.666 11.666 0 0 1-8.251 3.415h-67.438a11.676 11.676 0 0 1-8.245-3.418 11.656 11.656 0 0 1-3.414-8.241V120.286a6.51 6.51 0 0 1 1.906-4.603 6.524 6.524 0 0 1 4.604-1.912z" fill="#F3C74A"/><path d="M355.308 279.561h-52.621c-9.431 0-17.076-7.123-17.076-15.916v-86.879c0-8.793 7.645-15.916 17.076-15.916h52.621a4.223 4.223 0 0 1 4.127 4.288v110.135a4.22 4.22 0 0 1-1.18 2.992 4.233 4.233 0 0 1-2.947 1.296z" fill="#F8EEC8"/><path d="M267.926 151.582v-33.1c0-3.598 2.167-6.515 4.839-6.515h81.088c2.673 0 4.839 2.917 4.839 6.515v11.782l-90.766 21.318z" fill="#F3C74A" opacity=".67"/><path d="M364.46 88H262.54a4.538 4.538 0 0 0-4.54 4.536v26.781a4.538 4.538 0 0 0 4.54 4.536h101.92a4.538 4.538 0 0 0 4.54-4.536V92.536A4.538 4.538 0 0 0 364.46 88z" fill="#F8F6E8"/><path d="M269.401 125.038v-23.462a1.178 1.178 0 0 0-.347-.852 1.197 1.197 0 0 0-2.046.842v23.472h2.393zM291.327 125.038v-23.462a1.215 1.215 0 0 0-.088-.461 1.208 1.208 0 0 0-.649-.653 1.192 1.192 0 0 0-.46-.092 1.196 1.196 0 0 0-1.176 1.206v23.462h2.373zM313.252 125.038v-23.462a1.189 1.189 0 0 0-.736-1.114 1.2 1.2 0 0 0-1.307.258 1.2 1.2 0 0 0-.35.846v23.472h2.393zM357.103 125.038v-23.462a1.189 1.189 0 0 0-.736-1.114 1.2 1.2 0 0 0-1.307.258 1.2 1.2 0 0 0-.35.846v23.472h2.393zM335.178 125.038v-23.462a1.215 1.215 0 0 0-.088-.461 1.208 1.208 0 0 0-.649-.653 1.197 1.197 0 0 0-1.657 1.104v23.472h2.394z" fill="#C0D5D0"/><path d="M258.722 111.802h109.556a.724.724 0 0 1 .722.722v8.463a4.54 4.54 0 0 1-4.54 4.536H262.54a4.54 4.54 0 0 1-4.54-4.536v-8.453a.717.717 0 0 1 .444-.676.719.719 0 0 1 .278-.056z" fill="#F8F6E8"/></g><g clip-path="url(#clip2)"><path d="M168.225 192.446h120.539a7.192 7.192 0 0 1 7.196 7.191v178.494c0 3.413-1.357 6.686-3.772 9.1a12.883 12.883 0 0 1-9.106 3.769H173.917c-3.415 0-6.69-1.356-9.105-3.769a12.867 12.867 0 0 1-3.772-9.1V199.637a7.191 7.191 0 0 1 7.185-7.191z" fill="#F3C74A"/><path d="M164.217 348.9h54.184a17.599 17.599 0 0 0 12.409-5.165 17.575 17.575 0 0 0 5.136-12.415v-95.886c0-4.655-1.847-9.119-5.136-12.415a17.599 17.599 0 0 0-12.409-5.165h-54.184a4.55 4.55 0 0 0-4.281 4.745v121.556a4.55 4.55 0 0 0 4.281 4.745z" fill="#F8EEC8"/><path d="M160.801 234.182v-36.536a7.19 7.19 0 0 1 2.104-5.081 7.198 7.198 0 0 1 5.081-2.11h120.493a7.208 7.208 0 0 1 5.088 2.106 7.176 7.176 0 0 1 2.108 5.085v13.006l-134.874 23.53z" fill="#F3C74A" opacity=".67"/><path d="M305.99 164H151.01a5.008 5.008 0 0 0-5.01 5.007v29.561a5.008 5.008 0 0 0 5.01 5.006h154.98a5.008 5.008 0 0 0 5.01-5.006v-29.561a5.008 5.008 0 0 0-5.01-5.007z" fill="#F8F6E8"/><path d="M158.581 204.883v-25.898a1.3 1.3 0 0 0-.383-.94 1.317 1.317 0 0 0-1.871-.004 1.317 1.317 0 0 0-.387.933v25.909h2.641zM182.775 204.883v-25.898a1.316 1.316 0 0 0-1.32-1.331c-.349.006-.68.149-.923.399a1.314 1.314 0 0 0-.375.932v25.898h2.618zM206.97 204.883v-25.898a1.319 1.319 0 0 0-1.321-1.331 1.32 1.32 0 0 0-1.321 1.32v25.909h2.642zM231.164 204.883v-25.898a1.3 1.3 0 0 0-.383-.94 1.317 1.317 0 0 0-1.871-.004 1.317 1.317 0 0 0-.387.933v25.909h2.641zM255.358 204.883v-25.898a1.316 1.316 0 0 0-1.32-1.331 1.32 1.32 0 0 0-1.321 1.32v25.909h2.641zM279.553 204.883v-25.898a1.3 1.3 0 0 0-.383-.94 1.319 1.319 0 0 0-.938-.391 1.319 1.319 0 0 0-1.298 1.331v25.898h2.619zM303.747 204.883v-25.898a1.332 1.332 0 0 0-.812-1.229 1.324 1.324 0 0 0-1.442.285 1.317 1.317 0 0 0-.387.933v25.909h2.641z" fill="#C0D5D0"/><path d="M146.797 190.273h163.395a.797.797 0 0 1 .797.796v9.342a5.01 5.01 0 0 1-5.01 5.007H151.01a5.006 5.006 0 0 1-5.01-5.007v-9.33a.805.805 0 0 1 .489-.746.795.795 0 0 1 .308-.062z" fill="#F8F6E8"/></g><defs><clipPath id="clip0"><path fill="#fff" d="M0 0h202v358H0z"/></clipPath><clipPath id="clip1"><path fill="#fff" transform="translate(258 88)" d="M0 0h111v244H0z"/></clipPath><clipPath id="clip2"><path fill="#fff" transform="translate(146 164)" d="M0 0h165v227H0z"/></clipPath></defs></svg>
